findly-builder/apps/searchassist/src/assets/icons/findly-logo.svg

<svg width="97" height="30" viewBox="0 0 97 30" fill="none" xmlns="http://www.w3.org/2000/svg">
<path d="M33.1297 13V1.36364H40.5842V3.13068H35.2376V6.28977H40.0728V8.05682H35.2376V13H33.1297ZM42.4138 13V4.27273H44.4706V13H42.4138ZM43.4478 3.03409C43.1183 3.03409 42.8361 2.92614 42.6013 2.71023C42.3702 2.49053 42.2547 2.22727 42.2547 1.92045C42.2547 1.60985 42.3721 1.34659 42.6069 1.13068C42.8418 0.910984 43.1221 0.801136 43.4478 0.801136C43.7736 0.801136 44.052 0.910984 44.2831 1.13068C44.5179 1.34659 44.6353 1.60985 44.6353 1.92045C44.6353 2.22727 44.5179 2.49053 44.2831 2.71023C44.052 2.92614 43.7736 3.03409 43.4478 3.03409ZM48.6424 7.88636V13H46.5856V4.27273H48.5515V5.75568H48.6538C48.8546 5.26705 49.1746 4.87879 49.614 4.59091C50.0572 4.30303 50.6046 4.15909 51.2561 4.15909C51.8584 4.15909 52.383 4.28788 52.8299 4.54545C53.2807 4.80303 53.6292 5.17614 53.8754 5.66477C54.1254 6.15341 54.2485 6.74621 54.2447 7.44318V13H52.1879V7.76136C52.1879 7.17803 52.0364 6.72159 51.7334 6.39205C51.4341 6.0625 51.0193 5.89773 50.489 5.89773C50.1292 5.89773 49.8091 5.97727 49.5288 6.13636C49.2523 6.29167 49.0345 6.51705 48.8754 6.8125C48.7201 7.10795 48.6424 7.46591 48.6424 7.88636ZM59.5743 13.1534C58.8887 13.1534 58.275 12.9773 57.7334 12.625C57.1917 12.2727 56.7637 11.7614 56.4493 11.0909C56.1349 10.4205 55.9777 9.60606 55.9777 8.64773C55.9777 7.67803 56.1368 6.85985 56.4549 6.19318C56.7769 5.52273 57.2106 5.01705 57.7561 4.67614C58.3015 4.33144 58.9095 4.15909 59.5799 4.15909C60.0913 4.15909 60.5118 4.24621 60.8413 4.42045C61.1709 4.59091 61.4322 4.79735 61.6254 5.03977C61.8186 5.27841 61.9682 5.50379 62.0743 5.71591H62.1595V1.36364H64.222V13H62.1993V11.625H62.0743C61.9682 11.8371 61.8148 12.0625 61.614 12.3011C61.4133 12.536 61.1481 12.7367 60.8186 12.9034C60.489 13.0701 60.0743 13.1534 59.5743 13.1534ZM60.1481 11.4659C60.5837 11.4659 60.9549 11.3485 61.2618 11.1136C61.5686 10.875 61.8015 10.5436 61.9606 10.1193C62.1197 9.69508 62.1993 9.20076 62.1993 8.63636C62.1993 8.07197 62.1197 7.58144 61.9606 7.16477C61.8053 6.74811 61.5743 6.42424 61.2674 6.19318C60.9644 5.96212 60.5913 5.84659 60.1481 5.84659C59.6898 5.84659 59.3072 5.96591 59.0004 6.20455C58.6936 6.44318 58.4625 6.77273 58.3072 7.19318C58.1519 7.61364 58.0743 8.0947 58.0743 8.63636C58.0743 9.18182 58.1519 9.66856 58.3072 10.0966C58.4663 10.5208 58.6993 10.8561 59.0061 11.1023C59.3167 11.3447 59.6974 11.4659 60.1481 11.4659ZM68.4706 1.36364V13H66.4138V1.36364H68.4706ZM71.864 16.2557C71.5837 16.2557 71.3243 16.233 71.0856 16.1875C70.8508 16.1458 70.6633 16.0947 70.5231 16.0341L71.0004 14.4375C71.4474 14.5663 71.8224 14.5871 72.1254 14.5C72.4322 14.4167 72.6841 14.1345 72.8811 13.6534L73.0572 13.1818L69.8924 4.27273H72.0743L74.0856 10.8636H74.1765L76.1936 4.27273L78.3924 4.28409L74.8868 14.0568C74.7239 14.5114 74.508 14.9034 74.239 15.233C73.9701 15.5625 73.6406 15.8144 73.2504 15.9886C72.864 16.1667 72.4019 16.2557 71.864 16.2557ZM80.5402 13.125C80.1955 13.125 79.9 13.0038 79.6538 12.7614C79.4076 12.5189 79.2864 12.2235 79.2902 11.875C79.2864 11.5341 79.4076 11.2424 79.6538 11C79.9 10.7576 80.1955 10.6364 80.5402 10.6364C80.8735 10.6364 81.1633 10.7576 81.4095 11C81.6595 11.2424 81.7864 11.5341 81.7902 11.875C81.7864 12.1061 81.7258 12.3163 81.6084 12.5057C81.4947 12.6951 81.3432 12.8466 81.1538 12.9602C80.9682 13.0701 80.7637 13.125 80.5402 13.125ZM86.4251 13.1761C85.8721 13.1761 85.374 13.0777 84.9308 12.8807C84.4914 12.6799 84.1429 12.3845 83.8853 11.9943C83.6316 11.6042 83.5047 11.1231 83.5047 10.5511C83.5047 10.0587 83.5956 9.65152 83.7774 9.32955C83.9592 9.00758 84.2073 8.75 84.5217 8.55682C84.8361 8.36364 85.1903 8.2178 85.5842 8.11932C85.9819 8.01705 86.3929 7.94318 86.8172 7.89773C87.3285 7.8447 87.7433 7.79735 88.0615 7.75568C88.3797 7.71023 88.6107 7.64205 88.7547 7.55114C88.9024 7.45644 88.9763 7.31061 88.9763 7.11364V7.07955C88.9763 6.65152 88.8494 6.32008 88.5956 6.08523C88.3418 5.85038 87.9763 5.73295 87.499 5.73295C86.9952 5.73295 86.5956 5.8428 86.3001 6.0625C86.0084 6.2822 85.8115 6.54167 85.7092 6.84091L83.7888 6.56818C83.9403 6.03788 84.1903 5.5947 84.5388 5.23864C84.8872 4.87879 85.3134 4.60985 85.8172 4.43182C86.3209 4.25 86.8778 4.15909 87.4876 4.15909C87.9081 4.15909 88.3266 4.20833 88.7433 4.30682C89.16 4.4053 89.5406 4.56818 89.8853 4.79545C90.23 5.01894 90.5066 5.32386 90.7149 5.71023C90.927 6.09659 91.0331 6.57955 91.0331 7.15909V13H89.0558V11.8011H88.9876C88.8626 12.0436 88.6865 12.2708 88.4592 12.483C88.2357 12.6913 87.9535 12.8598 87.6126 12.9886C87.2755 13.1136 86.8797 13.1761 86.4251 13.1761ZM86.9592 11.6648C87.3721 11.6648 87.73 11.5833 88.0331 11.4205C88.3361 11.2538 88.5691 11.0341 88.7319 10.7614C88.8986 10.4886 88.9819 10.1913 88.9819 9.86932V8.84091C88.9175 8.89394 88.8077 8.94318 88.6524 8.98864C88.5009 9.03409 88.3304 9.07386 88.141 9.10795C87.9516 9.14205 87.7641 9.17235 87.5785 9.19886C87.3929 9.22538 87.2319 9.24811 87.0956 9.26705C86.7888 9.30871 86.5141 9.37689 86.2717 9.47159C86.0293 9.56629 85.838 9.69886 85.6978 9.86932C85.5577 10.036 85.4876 10.2519 85.4876 10.517C85.4876 10.8958 85.6259 11.1818 85.9024 11.375C86.1789 11.5682 86.5312 11.6648 86.9592 11.6648ZM93.1013 13V4.27273H95.1581V13H93.1013ZM94.1353 3.03409C93.8058 3.03409 93.5236 2.92614 93.2888 2.71023C93.0577 2.49053 92.9422 2.22727 92.9422 1.92045C92.9422 1.60985 93.0596 1.34659 93.2944 1.13068C93.5293 0.910984 93.8096 0.801136 94.1353 0.801136C94.4611 0.801136 94.7395 0.910984 94.9706 1.13068C95.2054 1.34659 95.3228 1.60985 95.3228 1.92045C95.3228 2.22727 95.2054 2.49053 94.9706 2.71023C94.7395 2.92614 94.4611 3.03409 94.1353 3.03409Z" fill="#202124"/>
<path d="M32.8626 27V19.7273H33.7007V22.4119H33.7717C33.8333 22.3172 33.9185 22.1965 34.0274 22.0497C34.1387 21.9006 34.2973 21.768 34.5032 21.652C34.7116 21.5336 34.9933 21.4744 35.3484 21.4744C35.8077 21.4744 36.2125 21.5893 36.5629 21.8189C36.9133 22.0485 37.1867 22.3741 37.3832 22.7955C37.5797 23.2169 37.678 23.714 37.678 24.2869C37.678 24.8646 37.5797 25.3653 37.3832 25.7891C37.1867 26.2105 36.9145 26.5372 36.5665 26.7692C36.2184 26.9988 35.8172 27.1136 35.3626 27.1136C35.0122 27.1136 34.7317 27.0556 34.521 26.9396C34.3103 26.8213 34.1481 26.6875 34.0345 26.5384C33.9209 26.3868 33.8333 26.2614 33.7717 26.1619H33.6723V27H32.8626ZM33.6865 24.2727C33.6865 24.6847 33.7468 25.0481 33.8676 25.3629C33.9883 25.6754 34.1647 25.9205 34.3967 26.098C34.6287 26.2732 34.9128 26.3608 35.249 26.3608C35.5994 26.3608 35.8917 26.2685 36.1261 26.0838C36.3629 25.8968 36.5404 25.6458 36.6588 25.331C36.7795 25.0137 36.8399 24.661 36.8399 24.2727C36.8399 23.8892 36.7807 23.5436 36.6623 23.2358C36.5463 22.9257 36.37 22.6806 36.1332 22.5007C35.8988 22.3184 35.6041 22.2273 35.249 22.2273C34.9081 22.2273 34.6216 22.3137 34.3896 22.4865C34.1576 22.657 33.9824 22.8961 33.864 23.2038C33.7457 23.5092 33.6865 23.8655 33.6865 24.2727ZM39.3044 29.0312C39.1623 29.0312 39.0357 29.0194 38.9244 28.9957C38.8131 28.9744 38.7362 28.9531 38.6936 28.9318L38.9066 28.1932C39.212 28.2713 39.4665 28.2689 39.6701 28.1861C39.8737 28.1056 40.0501 27.8617 40.1993 27.4545L40.3555 27.0284L38.3385 21.5455H39.2476L40.7532 25.892H40.8101L42.3157 21.5455L43.2319 21.5597L40.9095 27.7955C40.8053 28.0724 40.6763 28.3021 40.5224 28.4844C40.3685 28.669 40.1898 28.8063 39.9862 28.8963C39.785 28.9863 39.5577 29.0312 39.3044 29.0312ZM47.0183 27V19.7273H48.556V22.9339H48.6519L51.269 19.7273H53.1121L50.4132 22.9837L53.144 27H51.3046L49.3124 24.0099L48.556 24.9332V27H47.0183ZM55.9486 27.1065C55.3969 27.1065 54.9199 26.9893 54.5174 26.755C54.1174 26.5182 53.8084 26.1892 53.5906 25.7678C53.3728 25.344 53.2639 24.8527 53.2639 24.294C53.2639 23.7306 53.3728 23.2382 53.5906 22.8168C53.8084 22.393 54.1174 22.0639 54.5174 21.8295C54.9199 21.5928 55.3969 21.4744 55.9486 21.4744C56.5002 21.4744 56.976 21.5928 57.3761 21.8295C57.7786 22.0639 58.0887 22.393 58.3065 22.8168C58.5243 23.2382 58.6332 23.7306 58.6332 24.294C58.6332 24.8527 58.5243 25.344 58.3065 25.7678C58.0887 26.1892 57.7786 26.5182 57.3761 26.755C56.976 26.9893 56.5002 27.1065 55.9486 27.1065ZM55.9557 25.9347C56.2066 25.9347 56.4161 25.8636 56.5842 25.7216C56.7523 25.5772 56.879 25.3807 56.9642 25.1321C57.0518 24.8835 57.0956 24.6006 57.0956 24.2834C57.0956 23.9661 57.0518 23.6832 56.9642 23.4347C56.879 23.1861 56.7523 22.9896 56.5842 22.8452C56.4161 22.7008 56.2066 22.6286 55.9557 22.6286C55.7023 22.6286 55.4893 22.7008 55.3165 22.8452C55.146 22.9896 55.017 23.1861 54.9294 23.4347C54.8441 23.6832 54.8015 23.9661 54.8015 24.2834C54.8015 24.6006 54.8441 24.8835 54.9294 25.1321C55.017 25.3807 55.146 25.5772 55.3165 25.7216C55.4893 25.8636 55.7023 25.9347 55.9557 25.9347ZM59.6169 27V21.5455H61.0835V22.4972H61.1403C61.2397 22.1586 61.4066 21.9029 61.641 21.7301C61.8754 21.5549 62.1453 21.4673 62.4507 21.4673C62.5264 21.4673 62.6081 21.4721 62.6957 21.4815C62.7833 21.491 62.8602 21.504 62.9265 21.5206V22.8629C62.8555 22.8416 62.7573 22.8227 62.6318 22.8061C62.5063 22.7895 62.3915 22.7812 62.2873 22.7812C62.0648 22.7812 61.8659 22.8298 61.6907 22.9268C61.5179 23.0215 61.3806 23.1541 61.2788 23.3246C61.1794 23.495 61.1297 23.6915 61.1297 23.9141V27H59.6169ZM65.9406 27.1065C65.3795 27.1065 64.8965 26.9929 64.4917 26.7656C64.0892 26.536 63.7791 26.2116 63.5613 25.7926C63.3435 25.3712 63.2346 24.8729 63.2346 24.2976C63.2346 23.7365 63.3435 23.2441 63.5613 22.8203C63.7791 22.3965 64.0857 22.0663 64.481 21.8295C64.8788 21.5928 65.3452 21.4744 65.8802 21.4744C66.24 21.4744 66.575 21.5324 66.8852 21.6484C67.1977 21.7621 67.4699 21.9337 67.7019 22.1634C67.9363 22.393 68.1186 22.6818 68.2488 23.0298C68.379 23.3755 68.4441 23.7803 68.4441 24.2443V24.6598H63.8383V23.7223H67.0201C67.0201 23.5045 66.9728 23.3116 66.8781 23.1435C66.7834 22.9754 66.652 22.844 66.4839 22.7493C66.3182 22.6522 66.1252 22.6037 65.9051 22.6037C65.6754 22.6037 65.4718 22.657 65.2943 22.7635C65.1191 22.8677 64.9818 23.0085 64.8823 23.1861C64.7829 23.3613 64.732 23.5566 64.7296 23.772V24.6634C64.7296 24.9332 64.7793 25.1664 64.8788 25.3629C64.9806 25.5594 65.1238 25.7109 65.3085 25.8175C65.4931 25.924 65.7121 25.9773 65.9654 25.9773C66.1335 25.9773 66.2874 25.9536 66.4271 25.9062C66.5667 25.8589 66.6863 25.7879 66.7857 25.6932C66.8852 25.5985 66.9609 25.4825 67.013 25.3452L68.4122 25.4375C68.3411 25.7737 68.1955 26.0672 67.9754 26.3182C67.7576 26.5668 67.4758 26.7609 67.1302 26.9006C66.7869 27.0379 66.3904 27.1065 65.9406 27.1065ZM70.3156 27.0923C70.0812 27.0923 69.88 27.0095 69.7119 26.8438C69.5461 26.6757 69.4633 26.4744 69.4633 26.2401C69.4633 26.008 69.5461 25.8092 69.7119 25.6435C69.88 25.4777 70.0812 25.3949 70.3156 25.3949C70.5428 25.3949 70.7417 25.4777 70.9122 25.6435C71.0826 25.8092 71.1678 26.008 71.1678 26.2401C71.1678 26.3963 71.1276 26.5395 71.0471 26.6697C70.969 26.7976 70.866 26.9006 70.7381 26.9787C70.6103 27.0545 70.4694 27.0923 70.3156 27.0923ZM73.9652 27.103C73.6172 27.103 73.3071 27.0426 73.0348 26.9219C72.7626 26.7988 72.5472 26.6177 72.3885 26.3786C72.2323 26.1371 72.1542 25.8364 72.1542 25.4766C72.1542 25.1735 72.2098 24.919 72.3211 24.7131C72.4323 24.5071 72.5839 24.3414 72.7756 24.2159C72.9674 24.0904 73.1852 23.9957 73.429 23.9318C73.6752 23.8679 73.9333 23.8229 74.2032 23.7969C74.5204 23.7637 74.7761 23.733 74.9702 23.7045C75.1643 23.6738 75.3052 23.6288 75.3928 23.5696C75.4804 23.5104 75.5242 23.4228 75.5242 23.3068V23.2855C75.5242 23.0606 75.4532 22.8866 75.3111 22.7635C75.1714 22.6404 74.9726 22.5788 74.7145 22.5788C74.4423 22.5788 74.2257 22.6392 74.0647 22.7599C73.9037 22.8783 73.7972 23.0275 73.7451 23.2074L72.3459 23.0938C72.4169 22.7623 72.5566 22.4759 72.765 22.2344C72.9733 21.9905 73.242 21.8035 73.5711 21.6733C73.9025 21.5407 74.286 21.4744 74.7216 21.4744C75.0247 21.4744 75.3147 21.5099 75.5917 21.581C75.871 21.652 76.1184 21.7621 76.3339 21.9112C76.5517 22.0604 76.7233 22.2521 76.8488 22.4865C76.9742 22.7185 77.037 22.9967 77.037 23.321V27H75.6023V26.2436H75.5597C75.4721 26.4141 75.3549 26.5644 75.2081 26.6946C75.0614 26.8224 74.885 26.9231 74.679 26.9964C74.4731 27.0675 74.2351 27.103 73.9652 27.103ZM74.3985 26.0589C74.621 26.0589 74.8175 26.0152 74.988 25.9276C75.1584 25.8376 75.2922 25.7169 75.3892 25.5653C75.4863 25.4138 75.5348 25.2422 75.5348 25.0504V24.4716C75.4875 24.5024 75.4224 24.5308 75.3395 24.5568C75.259 24.5805 75.1679 24.603 75.0661 24.6243C74.9643 24.6432 74.8625 24.661 74.7607 24.6776C74.6589 24.6918 74.5666 24.7048 74.4837 24.7166C74.3062 24.7427 74.1511 24.7841 74.0185 24.8409C73.8859 24.8977 73.783 24.9747 73.7096 25.0717C73.6362 25.1664 73.5995 25.2848 73.5995 25.4268C73.5995 25.6328 73.6741 25.7902 73.8232 25.8991C73.9747 26.0057 74.1665 26.0589 74.3985 26.0589ZM78.2106 27V21.5455H79.7234V27H78.2106ZM78.9741 20.8423C78.7492 20.8423 78.5563 20.7678 78.3953 20.6186C78.2343 20.4671 78.1538 20.286 78.1538 20.0753C78.1538 19.867 78.2343 19.6882 78.3953 19.5391C78.5563 19.3875 78.748 19.3118 78.9706 19.3118C79.1978 19.3118 79.3908 19.3875 79.5494 19.5391C79.7104 19.6882 79.7909 19.867 79.7909 20.0753C79.7909 20.286 79.7104 20.4671 79.5494 20.6186C79.3908 20.7678 79.199 20.8423 78.9741 20.8423Z" fill="#9AA0A6"/>
<path d="M4.40487 18.6342L6.34814 20.5774L2.02304 24.9025C1.91587 25.0097 1.74166 25.0097 1.63449 24.9025L0.0803103 23.3484C-0.0268555 23.2412 -0.0268555 23.067 0.0803103 22.9598L4.40487 18.6342Z" fill="#009DAB"/>
<circle r="8.7931" transform="matrix(-1 0 0 1 13.1888 11.7931)" fill="#FFDC5C"/>
</svg>

<svg width="97" height="30" fill="none" xmlns="http://www.w3.org/2000/svg"><path d="M33.13 13V1.364h7.454V3.13h-5.346v3.16h4.835v1.767h-4.835V13H33.13Zm9.284 0V4.273h2.057V13h-2.057Zm1.034-9.966c-.33 0-.612-.108-.847-.324a1.052 1.052 0 0 1-.346-.79c0-.31.117-.573.352-.79a1.19 1.19 0 0 1 .84-.329c.327 0 .605.11.836.33.235.216.352.479.352.79 0 .306-.117.57-.352.79a1.18 1.18 0 0 1-.835.323Zm5.194 4.852V13h-2.056V4.273h1.965v1.483h.103c.2-.489.52-.877.96-1.165.443-.288.99-.432 1.642-.432.602 0 1.127.129 1.574.386.45.258.8.631 1.045 1.12.25.488.373 1.081.37 1.778V13h-2.057V7.761c0-.583-.152-1.04-.455-1.369-.299-.33-.714-.494-1.244-.494-.36 0-.68.08-.96.238a1.659 1.659 0 0 0-.654.676c-.155.296-.233.654-.233 1.074Zm10.932 5.267a3.3 3.3 0 0 1-1.84-.528c-.542-.352-.97-.864-1.285-1.534-.314-.67-.471-1.485-.471-2.443 0-.97.159-1.788.477-2.455.322-.67.756-1.176 1.301-1.517a3.344 3.344 0 0 1 1.824-.517c.511 0 .932.087 1.261.261.33.17.591.377.784.62.194.238.343.464.45.676h.084V1.364h2.063V13h-2.023v-1.375h-.125c-.106.212-.26.438-.46.676a2.53 2.53 0 0 1-.795.602c-.33.167-.745.25-1.245.25Zm.574-1.687c.436 0 .807-.117 1.114-.352.307-.239.54-.57.699-.995.159-.424.238-.918.238-1.483 0-.564-.08-1.055-.238-1.471-.156-.417-.387-.74-.694-.972-.303-.23-.676-.346-1.119-.346-.458 0-.84.119-1.148.358-.306.238-.538.568-.693.988a4.15 4.15 0 0 0-.233 1.443c0 .546.078 1.033.233 1.46.16.425.392.76.7 1.006.31.243.69.364 1.141.364Zm8.323-10.102V13h-2.057V1.364h2.057Zm3.393 14.892c-.28 0-.54-.023-.778-.069a2.604 2.604 0 0 1-.563-.153L71 14.438c.447.128.822.15 1.125.062.307-.083.56-.366.756-.847l.176-.471-3.165-8.91h2.182l2.012 6.592h.09l2.018-6.591 2.198.011-3.505 9.773a3.947 3.947 0 0 1-.648 1.176c-.269.33-.598.581-.989.756-.386.178-.848.267-1.386.267Zm8.676-3.131c-.345 0-.64-.121-.886-.364a1.178 1.178 0 0 1-.364-.886c-.004-.34.118-.633.364-.875s.541-.364.886-.364c.334 0 .623.122.87.364a1.195 1.195 0 0 1 .198 1.506c-.113.19-.265.34-.454.454-.186.11-.39.165-.614.165Zm5.885.051a3.64 3.64 0 0 1-1.494-.295 2.443 2.443 0 0 1-1.046-.887c-.253-.39-.38-.87-.38-1.443 0-.492.09-.9.272-1.221.182-.322.43-.58.745-.773a3.755 3.755 0 0 1 1.062-.438 8.639 8.639 0 0 1 1.233-.221c.512-.053.926-.1 1.245-.142.318-.046.549-.114.693-.205.147-.095.221-.24.221-.437V7.08c0-.428-.127-.76-.38-.995-.254-.235-.62-.352-1.097-.352-.504 0-.903.11-1.199.33-.292.22-.489.479-.59.778l-1.921-.273c.151-.53.401-.973.75-1.33.348-.36.774-.628 1.278-.806a4.89 4.89 0 0 1 1.67-.273c.421 0 .84.05 1.256.148.417.098.798.261 1.142.488.345.224.622.529.83.915.212.387.318.87.318 1.45V13h-1.977v-1.199h-.068a2.51 2.51 0 0 1-.529.682 2.542 2.542 0 0 1-.846.506c-.338.125-.733.187-1.188.187Zm.534-1.511c.413 0 .771-.082 1.074-.244a1.81 1.81 0 0 0 .699-.66c.167-.272.25-.57.25-.892V8.841a.967.967 0 0 1-.33.148 4.665 4.665 0 0 1-.511.119c-.19.034-.377.064-.563.09l-.482.069c-.307.042-.582.11-.824.205a1.369 1.369 0 0 0-.574.397c-.14.167-.21.383-.21.648 0 .379.138.665.414.858.277.193.63.29 1.057.29ZM93.101 13V4.273h2.057V13h-2.057Zm1.034-9.966c-.33 0-.611-.108-.846-.324a1.052 1.052 0 0 1-.347-.79c0-.31.118-.573.352-.79.235-.219.516-.329.841-.329.326 0 .605.11.836.33.234.216.352.479.352.79 0 .306-.118.57-.352.79a1.18 1.18 0 0 1-.836.323Z" fill="#202124"/><path d="M32.863 27v-7.273h.838v2.685h.07a7.52 7.52 0 0 1 .256-.362 1.5 1.5 0 0 1 .476-.398c.209-.118.49-.178.845-.178.46 0 .864.115 1.215.345.35.23.624.555.82.977.197.42.295.918.295 1.49 0 .579-.098 1.08-.295 1.503a2.326 2.326 0 0 1-.817.98c-.348.23-.749.345-1.203.345-.35 0-.631-.058-.842-.174a1.559 1.559 0 0 1-.486-.402 5.407 5.407 0 0 1-.263-.376h-.1V27h-.81Zm.824-2.727c0 .412.06.775.18 1.09.121.312.298.558.53.735.232.175.516.263.852.263.35 0 .643-.093.877-.277.237-.187.414-.438.533-.753.12-.317.18-.67.18-1.058 0-.384-.058-.73-.177-1.037a1.602 1.602 0 0 0-.529-.735c-.234-.183-.529-.274-.884-.274-.34 0-.627.087-.86.26a1.56 1.56 0 0 0-.525.717 2.95 2.95 0 0 0-.177 1.069Zm5.617 4.758a1.834 1.834 0 0 1-.61-.1l.213-.738c.305.078.56.076.763-.007.204-.08.38-.324.53-.732l.155-.426-2.016-5.482h.909l1.505 4.346h.057l1.506-4.346.916.014-2.322 6.236a2.331 2.331 0 0 1-.388.688 1.466 1.466 0 0 1-.536.412 1.65 1.65 0 0 1-.682.135ZM47.018 27v-7.273h1.538v3.207h.096l2.617-3.207h1.843l-2.699 3.257L53.144 27h-1.84l-1.992-2.99-.756.923V27h-1.538Zm8.93.107c-.551 0-1.028-.118-1.43-.352a2.407 2.407 0 0 1-.927-.987c-.218-.424-.327-.915-.327-1.474 0-.563.109-1.056.327-1.477.217-.424.526-.753.926-.988.403-.236.88-.355 1.432-.355.551 0 1.027.119 1.427.355.403.235.713.564.93.988.218.421.327.914.327 1.477 0 .559-.109 1.05-.327 1.474-.217.421-.527.75-.93.987-.4.234-.876.352-1.427.352Zm.008-1.172a.94.94 0 0 0 .628-.213c.168-.145.295-.341.38-.59a2.53 2.53 0 0 0 .132-.849c0-.317-.044-.6-.132-.848a1.321 1.321 0 0 0-.38-.59.93.93 0 0 0-.628-.216.963.963 0 0 0-.64.216c-.17.145-.299.341-.387.59a2.607 2.607 0 0 0-.128.848c0 .318.043.6.128.85.088.248.217.444.387.589a.974.974 0 0 0 .64.213ZM59.616 27v-5.454h1.468v.951h.056c.1-.338.267-.594.501-.767.234-.175.504-.263.81-.263a2.307 2.307 0 0 1 .475.054v1.342a2.644 2.644 0 0 0-.64-.082c-.221 0-.42.049-.595.146a1.072 1.072 0 0 0-.561.987V27h-1.513Zm6.325.107c-.562 0-1.044-.114-1.45-.341a2.335 2.335 0 0 1-.93-.973c-.218-.422-.326-.92-.326-1.495 0-.561.108-1.054.326-1.478.218-.424.525-.754.92-.99.398-.237.864-.356 1.4-.356.359 0 .694.058 1.004.174.313.114.585.286.817.515.234.23.417.519.547.867.13.345.195.75.195 1.214v.416h-4.606v-.938h3.182c0-.218-.047-.41-.142-.579a1.017 1.017 0 0 0-.394-.394 1.124 1.124 0 0 0-.579-.145c-.23 0-.433.053-.61.16a1.121 1.121 0 0 0-.413.422c-.1.175-.15.37-.152.586v.891c0 .27.05.503.149.7.102.196.245.348.43.454.184.107.403.16.656.16.168 0 .322-.023.462-.07a.926.926 0 0 0 .586-.561l1.4.091a1.92 1.92 0 0 1-.438.881c-.217.249-.5.443-.845.583-.343.137-.74.206-1.19.206Zm4.375-.015a.83.83 0 0 1-.604-.248.83.83 0 0 1-.249-.604c0-.232.083-.43.249-.596a.83.83 0 0 1 .604-.25c.227 0 .426.084.596.25.17.165.256.364.256.596 0 .156-.04.3-.12.43a.917.917 0 0 1-.31.309.813.813 0 0 1-.422.113Zm3.65.011c-.349 0-.659-.06-.931-.181a1.499 1.499 0 0 1-.647-.543c-.156-.242-.234-.543-.234-.902 0-.303.056-.558.167-.764.111-.206.263-.372.455-.497.191-.126.41-.22.653-.284.246-.064.504-.11.774-.135.317-.033.573-.064.767-.093.194-.03.335-.075.423-.134a.297.297 0 0 0 .131-.263v-.021c0-.225-.07-.4-.213-.523-.14-.123-.338-.184-.597-.184-.272 0-.488.06-.65.18a.834.834 0 0 0-.319.448l-1.4-.113a1.9 1.9 0 0 1 .42-.86 2.01 2.01 0 0 1 .806-.56 3.082 3.082 0 0 1 1.15-.2c.304 0 .594.036.87.107.28.071.527.181.743.33.218.15.39.341.515.575.125.232.188.51.188.835V27h-1.435v-.756h-.042c-.088.17-.205.32-.352.45a1.625 1.625 0 0 1-.529.302 2.185 2.185 0 0 1-.714.107Zm.433-1.044c.222 0 .418-.044.589-.131.17-.09.304-.211.401-.363a.933.933 0 0 0 .146-.515v-.578a.806.806 0 0 1-.195.085 3.349 3.349 0 0 1-.274.067 14.14 14.14 0 0 1-.305.054l-.277.039a1.876 1.876 0 0 0-.465.124.744.744 0 0 0-.31.23.562.562 0 0 0-.11.356c0 .206.075.363.224.472.152.107.344.16.576.16ZM78.21 27v-5.454h1.512V27H78.21Zm.763-6.158a.822.822 0 0 1-.579-.223.72.72 0 0 1-.241-.544c0-.208.08-.387.241-.536a.81.81 0 0 1 .576-.227c.227 0 .42.075.578.227a.72.72 0 0 1 0 1.08.81.81 0 0 1-.575.223Z" fill="#9AA0A6"/><path d="m4.405 18.634 1.943 1.943-4.325 4.325a.275.275 0 0 1-.389 0L.08 23.349a.275.275 0 0 1 0-.388l4.325-4.326Z" fill="#009DAB"/><circle r="8.793" transform="matrix(-1 0 0 1 13.189 11.793)" fill="#FFDC5C"/></svg>
